icons/lock-unlock-line.svg

<svg xmlns="http://www.w3.org/2000/svg" width="24" height="24" fill="none"><g clip-path="url(#a)"><g><path fill="#121212" d="M7 10H20C20.2652 10 20.5196 10.1054 20.7071 10.2929C20.8946 10.4805 21 10.7348 21 11V21C21 21.2652 20.8946 21.5196 20.7071 21.7071C20.5196 21.8947 20.2652 22 20 22H4C3.73478 22 3.48043 21.8947 3.29289 21.7071C3.10536 21.5196 3 21.2652 3 21V11C3 10.7348 3.10536 10.4805 3.29289 10.2929C3.48043 10.1054 3.73478 10 4 10H5V9.00003C4.99943 7.42273 5.53158 5.89147 6.51019 4.65446C7.4888 3.41746 8.8565 2.54721 10.3916 2.18479C11.9267 1.82237 13.5392 1.98903 14.9677 2.65774C16.3963 3.32645 17.5571 4.45802 18.262 5.86903L16.473 6.76303C15.9695 5.75505 15.1403 4.94668 14.1198 4.46898C13.0994 3.99128 11.9475 3.87225 10.8509 4.13121C9.7543 4.39016 8.77733 5.0119 8.07836 5.89564C7.37939 6.77937 6.9994 7.87329 7 9.00003V10ZM5 12V20H19V12H5ZM10 15H14V17H10V15Z"/></g></g><defs><clipPath id="a"><rect width="24" height="24" fill="white"/></clipPath></defs></svg>

<svg width="24" height="24" fill="none" xmlns="http://www.w3.org/2000/svg"><g clip-path="url(#a)"><path d="M7 10h13a1 1 0 0 1 1 1v10a1 1 0 0 1-1 1H4a1 1 0 0 1-1-1V11a1 1 0 0 1 1-1h1V9a7 7 0 0 1 13.262-3.131l-1.789.894A5 5 0 0 0 7 9v1Zm-2 2v8h14v-8H5Zm5 3h4v2h-4v-2Z" /></g><defs><clipPath id="a"><path fill="#fff" d="M0 0h24v24H0z"/></clipPath></defs></svg>
